icons/lines/photoshop.svg

<svg xmlns="http://www.w3.org/2000/svg" width="24" height="24" viewBox="0 0 24 24" fill="none" stroke="currentColor" stroke-width="2" stroke-linecap="round" stroke-linejoin="round">
  <path d="M16.5 11h-1.3a1.216 1.216 0 0 0 0 2.4 1.216 1.216 0 0 1 0 2.4H14" />
  <path d="M7.5 16V8h2a2 2 0 0 1 0 4h-2" />
  <path d="M9 22c-5 0-7-2-7-7V9c0-5 2-7 7-7h6c5 0 7 2 7 7v6c0 5-2 7-7 7z" />
</svg>

<svg xmlns="http://www.w3.org/2000/svg" width="24" height="24" viewBox="0 0 24 24" fill="none" stroke="currentColor" stroke-width="2" stroke-linecap="round" stroke-linejoin="round" >
  <path d="M15 22H9C4 22 2 20 2 15V9C2 4 4 2 9 2H15C20 2 22 4 22 9V15C22 20 20 22 15 22Z"/>
  <path d="M7.5 16V8H9.5C10.6 8 11.5 8.9 11.5 10C11.5 11.1 10.6 12 9.5 12H7.5" stroke-miterlimit="10"/>
  <path d="M16.5 11H15.2C14.5 11 14 11.6 14 12.2C14 12.9 14.6 13.4 15.2 13.4C15.9 13.4 16.4 14 16.4 14.6C16.4 15.3 15.8 15.8 15.2 15.8H14" stroke-miterlimit="10"/>
  </svg>
